X: 33999
T: Reel Around The Sun
R: reel
M: 4/4
K: Ddorian
|A,DAG EccE|cAGE G/A/G EC|A,DAG EccE|cAGA c2 de|
fgag f/g/f ed|cdeA cdGc|dFGA cdcA|AEGC D2 z D|
A,DAG EccE|cAGE G/A/G EC|A,DAG EccE|cAGA c2 de|
fgag f/g/f ed|cdeA cdGc|dFGA cdcA|AEGC D2 z2|
A,DAG EccE|cAGE G/A/G EC|A,DAG EccE|cAGA c2 de|
fgag f/g/f ed|cdeA cdGc|dFGA cdcA|AEGC D2 z D|
A,DAG EccE|cAGE G/A/G EC|A,DAG EccE|cAGA c2 de|
fgag f/g/f ed|cdeA cdGc|dFGA cdcA|AEGC D2 z2|

